public/icons/gcp-icon.svg

<svg width="129" height="128" viewBox="0 0 129 128" fill="none" xmlns="http://www.w3.org/2000/svg">
<g clip-path="url(#clip0_67_79)">
<path d="M98.5996 0H30.5996C14.0311 0 0.599609 13.4315 0.599609 30V98C0.599609 114.569 14.0311 128 30.5996 128H98.5996C115.168 128 128.6 114.569 128.6 98V30C128.6 13.4315 115.168 0 98.5996 0Z" fill="#F4F2ED"/>
<path d="M81.1041 46.195L89.7966 37.502L90.3761 33.842C74.5361 19.4385 49.3561 21.072 35.0761 37.25C31.1101 41.743 28.1676 47.345 26.5986 53.13L29.7116 52.691L47.0966 49.8245L48.4386 48.452C56.1716 39.959 69.2471 38.816 78.1761 46.042L81.1041 46.195Z" fill="#EA4335"/>
<path d="M102.179 52.8745C100.182 45.5165 96.0796 38.9019 90.3759 33.8425L78.1759 46.0425C80.7185 48.1201 82.7562 50.7479 84.1352 53.7277C85.5141 56.7076 86.1984 59.9617 86.1364 63.2445V65.41C92.1329 65.41 96.9944 70.271 96.9944 76.2675C96.9944 82.264 92.1329 87.004 86.1364 87.004H64.3899L62.2549 89.322V102.346L64.3899 104.389H86.1364C101.734 104.511 114.477 92.0865 114.598 76.489C114.635 71.8342 113.52 67.2426 111.354 63.1226C109.187 59.0027 106.035 55.4822 102.179 52.8745Z" fill="#4285F4"/>
<path d="M42.674 104.389H64.39V87.004H42.674C41.1366 87.0038 39.6175 86.6709 38.221 86.028L35.1405 86.9735L26.387 95.666L25.6245 98.6245C30.5335 102.331 36.5225 104.415 42.674 104.389Z" fill="#34A853"/>
<path d="M42.6741 47.9945C27.0761 48.0875 14.5071 60.8075 14.5996 76.405C14.6254 80.7032 15.6319 84.9389 17.5424 88.7894C19.4529 92.6398 22.217 96.0034 25.6241 98.624L38.2206 86.0275C32.7556 83.5585 30.3271 77.1265 32.7961 71.662C35.2651 66.1975 41.6971 63.7685 47.1611 66.237C49.5693 67.325 51.498 69.2538 52.5861 71.662L65.1826 59.0655C62.5389 55.6089 59.1313 52.8109 55.2264 50.8902C51.3216 48.9695 47.0253 47.9783 42.6736 47.994" fill="#FBBC05"/>
</g>
<defs>
<clipPath id="clip0_67_79">
<rect width="128" height="128" fill="white" transform="translate(0.599609)"/>
</clipPath>
</defs>
</svg>

<svg xmlns="http://www.w3.org/2000/svg" width="129" height="128" fill="none"><g clip-path="url(#a)"><path fill="#F4F2ED" d="M98.6 0h-68C14.03 0 .6 13.431.6 30v68c0 16.569 13.431 30 30 30h68c16.568 0 30-13.431 30-30V30c0-16.569-13.432-30-30-30Z"/><path fill="#EA4335" d="m81.104 46.195 8.693-8.693.58-3.66c-15.84-14.403-41.02-12.77-55.3 3.408-3.967 4.493-6.91 10.095-8.478 15.88l3.113-.439 17.385-2.867 1.342-1.372c7.733-8.493 20.808-9.636 29.737-2.41l2.928.153Z"/><path fill="#4285F4" d="M102.179 52.874a39.147 39.147 0 0 0-11.803-19.032l-12.2 12.2a21.687 21.687 0 0 1 7.96 17.203v2.165c5.997 0 10.858 4.861 10.858 10.858 0 5.996-4.861 10.736-10.858 10.736H64.39l-2.135 2.318v13.024l2.135 2.043h21.746c15.598.122 28.341-12.302 28.462-27.9a28.242 28.242 0 0 0-12.419-23.615Z"/><path fill="#34A853" d="M42.674 104.389H64.39V87.004H42.674c-1.537 0-3.056-.333-4.453-.976l-3.08.945-8.754 8.693-.762 2.959c4.909 3.706 10.898 5.79 17.049 5.764Z"/><path fill="#FBBC05" d="M42.674 47.995c-15.598.093-28.167 12.813-28.074 28.41a28.245 28.245 0 0 0 11.024 22.219l12.597-12.596c-5.465-2.47-7.894-8.902-5.425-14.366 2.47-5.465 8.901-7.894 14.365-5.425a10.86 10.86 0 0 1 5.425 5.425l12.597-12.597a28.209 28.209 0 0 0-22.51-11.071"/></g><defs><clipPath id="a"><path fill="#fff" d="M.6 0h128v128H.6z"/></clipPath></defs></svg>
